X:1
T:Hearts Ease
C:John Playford, The English Dancing Master, 1651
N:arr. Drea Leed. Matches Pile 2018
P:AABB x 3
M:6/8
L:1/8
K:E minor
E |:\
P:A
"Am"ABc B2A | "E"^G2A B2E | "Am"A2B c2d | "E"e3 e2e ::\
P:B
"G"Bcd ded | g2d d2B | 
"Am"c2B c2d | "E"e3 e2e | "G"d2c Bcd | "Am"c2B ABc | "E"B2A ^GFG | "Am"A3 A3 :|

